icons/blister_pills_round_x14_fill.svg

<svg width="48" height="48" viewBox="0 0 48 48" fill="none" xmlns="http://www.w3.org/2000/svg">
<path fill-rule="evenodd" clip-rule="evenodd" d="M16 4C13.7909 4 12 5.79086 12 8V40C12 42.2091 13.7909 44 16 44H24.585C24.2606 43.9921 24 43.7279 24 43.4032C24 43.0734 24.2686 42.8062 24.6 42.8062C24.9314 42.8062 25.2 43.0734 25.2 43.4032C25.2 43.7279 24.9394 43.9921 24.615 44H32C34.2091 44 36 42.2091 36 40V8C36 5.79086 34.2091 4 32 4H24.6H16ZM24.6 4C24.9314 4 25.2 4.26729 25.2 4.59702C25.2 4.92674 24.9314 5.19403 24.6 5.19403C24.2686 5.19403 24 4.92674 24 4.59702C24 4.26729 24.2686 4 24.6 4ZM24.6 39.8213C24.9314 39.8213 25.2 40.0886 25.2 40.4183C25.2 40.748 24.9314 41.0153 24.6 41.0153C24.2686 41.0153 24 40.748 24 40.4183C24 40.0886 24.2686 39.8213 24.6 39.8213ZM25.2 37.433C25.2 37.1032 24.9314 36.8359 24.6 36.8359C24.2686 36.8359 24 37.1032 24 37.433C24 37.7627 24.2686 38.03 24.6 38.03C24.9314 38.03 25.2 37.7627 25.2 37.433ZM24.6 33.8511C24.9314 33.8511 25.2 34.1184 25.2 34.4481C25.2 34.7778 24.9314 35.0451 24.6 35.0451C24.2686 35.0451 24 34.7778 24 34.4481C24 34.1184 24.2686 33.8511 24.6 33.8511ZM25.2 31.4627C25.2 31.133 24.9314 30.8657 24.6 30.8657C24.2686 30.8657 24 31.133 24 31.4627C24 31.7925 24.2686 32.0598 24.6 32.0598C24.9314 32.0598 25.2 31.7925 25.2 31.4627ZM24.6 27.8809C24.9314 27.8809 25.2 28.1482 25.2 28.4779C25.2 28.8076 24.9314 29.0749 24.6 29.0749C24.2686 29.0749 24 28.8076 24 28.4779C24 28.1482 24.2686 27.8809 24.6 27.8809ZM25.2 25.4925C25.2 25.1628 24.9314 24.8955 24.6 24.8955C24.2686 24.8955 24 25.1628 24 25.4925C24 25.8222 24.2686 26.0895 24.6 26.0895C24.9314 26.0895 25.2 25.8222 25.2 25.4925ZM24.6 21.9106C24.9314 21.9106 25.2 22.1779 25.2 22.5077C25.2 22.8374 24.9314 23.1047 24.6 23.1047C24.2686 23.1047 24 22.8374 24 22.5077C24 22.1779 24.2686 21.9106 24.6 21.9106ZM25.2 19.5223C25.2 19.1926 24.9314 18.9253 24.6 18.9253C24.2686 18.9253 24 19.1926 24 19.5223C24 19.852 24.2686 20.1193 24.6 20.1193C24.9314 20.1193 25.2 19.852 25.2 19.5223ZM24.6 15.9404C24.9314 15.9404 25.2 16.2077 25.2 16.5374C25.2 16.8672 24.9314 17.1345 24.6 17.1345C24.2686 17.1345 24 16.8672 24 16.5374C24 16.2077 24.2686 15.9404 24.6 15.9404ZM25.2 13.5526C25.2 13.2229 24.9314 12.9556 24.6 12.9556C24.2686 12.9556 24 13.2229 24 13.5526C24 13.8823 24.2686 14.1496 24.6 14.1496C24.9314 14.1496 25.2 13.8823 25.2 13.5526ZM24.6 9.97021C24.9314 9.97021 25.2 10.2375 25.2 10.5672C25.2 10.897 24.9314 11.1642 24.6 11.1642C24.2686 11.1642 24 10.897 24 10.5672C24 10.2375 24.2686 9.97021 24.6 9.97021ZM25.2 7.58237C25.2 7.25264 24.9314 6.98535 24.6 6.98535C24.2686 6.98535 24 7.25264 24 7.58237C24 7.91209 24.2686 8.17938 24.6 8.17938C24.9314 8.17938 25.2 7.91209 25.2 7.58237ZM18.5 10.1692C19.3284 10.1692 20 9.50093 20 8.67662C20 7.85231 19.3284 7.18408 18.5 7.18408C17.6716 7.18408 17 7.85231 17 8.67662C17 9.50093 17.6716 10.1692 18.5 10.1692ZM20 13.6518C20 14.4761 19.3284 15.1443 18.5 15.1443C17.6716 15.1443 17 14.4761 17 13.6518C17 12.8274 17.6716 12.1592 18.5 12.1592C19.3284 12.1592 20 12.8274 20 13.6518ZM18.5 20.1194C19.3284 20.1194 20 19.4512 20 18.6269C20 17.8026 19.3284 17.1343 18.5 17.1343C17.6716 17.1343 17 17.8026 17 18.6269C17 19.4512 17.6716 20.1194 18.5 20.1194ZM20 23.602C20 24.4263 19.3284 25.0946 18.5 25.0946C17.6716 25.0946 17 24.4263 17 23.602C17 22.7777 17.6716 22.1095 18.5 22.1095C19.3284 22.1095 20 22.7777 20 23.602ZM18.5 30.0697C19.3284 30.0697 20 29.4014 20 28.5771C20 27.7528 19.3284 27.0846 18.5 27.0846C17.6716 27.0846 17 27.7528 17 28.5771C17 29.4014 17.6716 30.0697 18.5 30.0697ZM20 33.5523C20 34.3766 19.3284 35.0448 18.5 35.0448C17.6716 35.0448 17 34.3766 17 33.5523C17 32.728 17.6716 32.0597 18.5 32.0597C19.3284 32.0597 20 32.728 20 33.5523ZM18.5 40.0199C19.3284 40.0199 20 39.3517 20 38.5274C20 37.7031 19.3284 37.0349 18.5 37.0349C17.6716 37.0349 17 37.7031 17 38.5274C17 39.3517 17.6716 40.0199 18.5 40.0199ZM32 8.67662C32 9.50093 31.3284 10.1692 30.5 10.1692C29.6716 10.1692 29 9.50093 29 8.67662C29 7.85231 29.6716 7.18408 30.5 7.18408C31.3284 7.18408 32 7.85231 32 8.67662ZM30.5 15.1443C31.3284 15.1443 32 14.4761 32 13.6518C32 12.8274 31.3284 12.1592 30.5 12.1592C29.6716 12.1592 29 12.8274 29 13.6518C29 14.4761 29.6716 15.1443 30.5 15.1443ZM32 18.6269C32 19.4512 31.3284 20.1194 30.5 20.1194C29.6716 20.1194 29 19.4512 29 18.6269C29 17.8026 29.6716 17.1343 30.5 17.1343C31.3284 17.1343 32 17.8026 32 18.6269ZM30.5 25.0946C31.3284 25.0946 32 24.4263 32 23.602C32 22.7777 31.3284 22.1095 30.5 22.1095C29.6716 22.1095 29 22.7777 29 23.602C29 24.4263 29.6716 25.0946 30.5 25.0946ZM32 28.5771C32 29.4014 31.3284 30.0697 30.5 30.0697C29.6716 30.0697 29 29.4014 29 28.5771C29 27.7528 29.6716 27.0846 30.5 27.0846C31.3284 27.0846 32 27.7528 32 28.5771ZM30.5 35.0448C31.3284 35.0448 32 34.3766 32 33.5523C32 32.728 31.3284 32.0597 30.5 32.0597C29.6716 32.0597 29 32.728 29 33.5523C29 34.3766 29.6716 35.0448 30.5 35.0448ZM32 38.5274C32 39.3517 31.3284 40.0199 30.5 40.0199C29.6716 40.0199 29 39.3517 29 38.5274C29 37.7031 29.6716 37.0349 30.5 37.0349C31.3284 37.0349 32 37.7031 32 38.5274Z" fill="black"/>
</svg>

<svg
  xmlns="http://www.w3.org/2000/svg"
  width="24"
  height="24"
  viewBox="0 0 24 24"
  fill="none"
  stroke="currentColor"
  stroke-width="2"
  stroke-linecap="round"
  stroke-linejoin="round"
>
  <path
    fill-rule="evenodd"
    d="M16 4a4 4 0 0 0-4 4v32a4 4 0 0 0 4 4h8.585a.6.6 0 0 1-.585-.597c0-.33.269-.597.6-.597s.6.267.6.597c0 .325-.26.59-.585.597H32a4 4 0 0 0 4-4V8a4 4 0 0 0-4-4H16m8.6 0c.331 0 .6.267.6.597s-.269.597-.6.597a.6.6 0 0 1-.6-.597c0-.33.269-.597.6-.597m0 35.821c.331 0 .6.268.6.597 0 .33-.269.597-.6.597a.6.6 0 0 1-.6-.597c0-.33.269-.597.6-.597m.6-2.388a.6.6 0 0 0-.6-.597c-.331 0-.6.267-.6.597s.269.597.6.597.6-.267.6-.597m-.6-3.582c.331 0 .6.267.6.597s-.269.597-.6.597a.6.6 0 0 1-.6-.597c0-.33.269-.597.6-.597m.6-2.388a.6.6 0 0 0-.6-.597c-.331 0-.6.267-.6.597s.269.597.6.597.6-.268.6-.597m-.6-3.582c.331 0 .6.267.6.597s-.269.597-.6.597a.6.6 0 0 1-.6-.597c0-.33.269-.597.6-.597m.6-2.389a.6.6 0 0 0-.6-.597.598.598 0 1 0 0 1.194c.331 0 .6-.267.6-.596m-.6-3.581c.331 0 .6.267.6.597s-.269.597-.6.597a.6.6 0 0 1-.6-.597c0-.33.269-.597.6-.597m.6-2.389a.6.6 0 0 0-.6-.597c-.331 0-.6.268-.6.597 0 .33.269.597.6.597s.6-.267.6-.597m-.6-3.582c.331 0 .6.268.6.597 0 .33-.269.598-.6.598a.6.6 0 0 1-.6-.598c0-.33.269-.597.6-.597m.6-2.387a.6.6 0 0 0-.6-.597c-.331 0-.6.267-.6.597s.269.597.6.597.6-.268.6-.597m-.6-3.583c.331 0 .6.268.6.597 0 .33-.269.597-.6.597a.6.6 0 0 1-.6-.597c0-.33.269-.597.6-.597m.6-2.388a.6.6 0 0 0-.6-.597c-.331 0-.6.268-.6.597 0 .33.269.597.6.597s.6-.267.6-.597m-6.7 2.587c.828 0 1.5-.668 1.5-1.492 0-.825-.672-1.493-1.5-1.493S17 7.852 17 8.677c0 .824.672 1.492 1.5 1.492m1.5 3.483c0 .824-.672 1.492-1.5 1.492s-1.5-.668-1.5-1.492c0-.825.672-1.493 1.5-1.493s1.5.668 1.5 1.493m-1.5 6.467c.828 0 1.5-.668 1.5-1.492s-.672-1.493-1.5-1.493-1.5.669-1.5 1.493.672 1.492 1.5 1.492m1.5 3.483c0 .824-.672 1.493-1.5 1.493s-1.5-.669-1.5-1.493.672-1.492 1.5-1.492 1.5.668 1.5 1.492m-1.5 6.468c.828 0 1.5-.669 1.5-1.493s-.672-1.492-1.5-1.492-1.5.668-1.5 1.492.672 1.493 1.5 1.493m1.5 3.482c0 .825-.672 1.493-1.5 1.493s-1.5-.668-1.5-1.493c0-.824.672-1.492 1.5-1.492s1.5.668 1.5 1.492m-1.5 6.468c.828 0 1.5-.668 1.5-1.493 0-.824-.672-1.492-1.5-1.492s-1.5.668-1.5 1.492c0 .825.672 1.493 1.5 1.493M32 8.677c0 .824-.672 1.492-1.5 1.492S29 9.501 29 8.677c0-.825.672-1.493 1.5-1.493s1.5.668 1.5 1.493m-1.5 6.467c.828 0 1.5-.668 1.5-1.492 0-.825-.672-1.493-1.5-1.493s-1.5.668-1.5 1.493c0 .824.672 1.492 1.5 1.492m1.5 3.483c0 .824-.672 1.492-1.5 1.492s-1.5-.668-1.5-1.492.672-1.493 1.5-1.493 1.5.669 1.5 1.493m-1.5 6.468c.828 0 1.5-.669 1.5-1.493s-.672-1.492-1.5-1.492-1.5.668-1.5 1.492.672 1.493 1.5 1.493m1.5 3.482c0 .824-.672 1.493-1.5 1.493S29 29.4 29 28.577s.672-1.492 1.5-1.492 1.5.668 1.5 1.492m-1.5 6.468c.828 0 1.5-.668 1.5-1.493 0-.824-.672-1.492-1.5-1.492s-1.5.668-1.5 1.492c0 .825.672 1.493 1.5 1.493m1.5 3.482c0 .825-.672 1.493-1.5 1.493s-1.5-.668-1.5-1.493c0-.824.672-1.492 1.5-1.492s1.5.668 1.5 1.492"
    clip-rule="evenodd"
  />
</svg>
